Numix-GalliumOS/48/devices/battery-missing.svg

<?xml version="1.0" encoding="UTF-8" standalone="no"?>
<svg
   xmlns:dc="http://purl.org/dc/elements/1.1/"
   xmlns:cc="http://creativecommons.org/ns#"
   xmlns:rdf="http://www.w3.org/1999/02/22-rdf-syntax-ns#"
   xmlns:svg="http://www.w3.org/2000/svg"
   xmlns="http://www.w3.org/2000/svg"
   xmlns:xlink="http://www.w3.org/1999/xlink"
   xmlns:sodipodi="http://sodipodi.sourceforge.net/DTD/sodipodi-0.dtd"
   xmlns:inkscape="http://www.inkscape.org/namespaces/inkscape"
   viewBox="0 0 48 48"
   id="svg2"
   version="1.1"
   inkscape:version="0.91 r"
   width="100%"
   height="100%"
   sodipodi:docname="battery-missing.svg">
  <metadata
     id="metadata14">
    <rdf:RDF>
      <cc:Work
         rdf:about="">
        <dc:format>image/svg+xml</dc:format>
        <dc:type
           rdf:resource="http://purl.org/dc/dcmitype/StillImage" />
        <dc:title />
      </cc:Work>
    </rdf:RDF>
  </metadata>
  <defs
     id="defs12">
    <linearGradient
       id="linearGradient3784">
      <stop
         style="stop-color:#839496;stop-opacity:1;"
         offset="0"
         id="stop3786" />
      <stop
         style="stop-color:#667678;stop-opacity:1;"
         offset="1"
         id="stop3788" />
    </linearGradient>
    <linearGradient
       inkscape:collect="always"
       xlink:href="#linearGradient3784"
       id="linearGradient3790"
       x1="22.454058"
       y1="-7"
       x2="22.454058"
       y2="23"
       gradientUnits="userSpaceOnUse" />
  </defs>
  <sodipodi:namedview
     pagecolor="#ffffff"
     bordercolor="#666666"
     borderopacity="1"
     objecttolerance="10"
     gridtolerance="10"
     guidetolerance="10"
     inkscape:pageopacity="0"
     inkscape:pageshadow="2"
     inkscape:window-width="1920"
     inkscape:window-height="1056"
     id="namedview10"
     showgrid="true"
     inkscape:zoom="16"
     inkscape:cx="4.5923707"
     inkscape:cy="22.468309"
     inkscape:window-x="0"
     inkscape:window-y="24"
     inkscape:window-maximized="1"
     inkscape:current-layer="svg2"
     showguides="false">
    <inkscape:grid
       type="xygrid"
       id="grid2993" />
  </sodipodi:namedview>
  <path
     style="fill:url(#linearGradient3790);fill-opacity:1;stroke:none"
     d="M 22 8 C 20.892 8 20 8.892 20 10 L 20 11 L 18 11 C 16.892 11 16 11.892 16 13 L 16 38 C 16 39.108 16.892 40 18 40 L 30 40 C 31.108 40 32 39.108 32 38 L 32 13 C 32 11.892 31.108 11 30 11 L 28 11 L 28 10 C 28 8.892 27.108 8 26 8 L 22 8 z "
     id="rect2995" />
  <rect
     style="fill:#ffffff;fill-opacity:1;stroke:none;opacity:0.2"
     id="rect3774"
     width="2"
     height="3"
     x="24"
     y="8" />
  <rect
     ry="2"
     rx="2"
     y="11"
     x="16"
     height="29"
     width="16"
     id="rect4174"
     style="opacity:0.2;fill:#6fa7ce;fill-opacity:1;fill-rule:nonzero;stroke:none;stroke-width:3;stroke-linecap:butt;stroke-linejoin:miter;stroke-miterlimit:4;stroke-dasharray:none;stroke-dashoffset:0;stroke-opacity:1" />
  <rect
     style="opacity:0.2;fill:#ffffff;fill-opacity:1;stroke:none"
     id="rect3772"
     width="3"
     height="29"
     x="27"
     y="11" />
  <g
     id="g4269"
     transform="matrix(1.7244243,0,0,1.7244243,-3.4758282,-0.80541394)"
     style="fill:#ffffff;fill-opacity:1">
    <path
       inkscape:connector-curvature="0"
       style="line-height:125%;letter-spacing:0;word-spacing:0;fill:#ffffff;fill-opacity:1"
       d="m 14.757049,16.704366 0,-0.291763 c 0,-0.381452 0.08893,-0.713239 0.266812,-0.995362 0.177872,-0.282114 0.503251,-0.582113 0.976138,-0.899998 0.455528,-0.298008 0.754877,-0.540391 0.898048,-0.727151 0.147502,-0.186749 0.221254,-0.395358 0.221259,-0.625827 -5e-6,-0.258271 -0.104122,-0.454959 -0.312365,-0.590064 -0.208247,-0.135093 -0.498919,-0.202642 -0.872018,-0.202649 -0.650761,7e-6 -1.392626,0.194708 -2.225596,0.584105 L 13,11.65036 c 0.967461,-0.496678 1.99349,-0.745022 3.078091,-0.745031 0.893704,9e-6 1.603032,0.196697 2.127982,0.590066 0.529277,0.393384 0.793921,0.917886 0.793927,1.573506 -6e-6,0.437091 -0.108463,0.814574 -0.32538,1.132448 -0.216925,0.317886 -0.629073,0.6755 -1.236443,1.072845 -0.41649,0.282123 -0.681132,0.496693 -0.793926,0.643708 -0.108464,0.147024 -0.162693,0.339738 -0.162689,0.578144 l 0,0.20832 -1.724513,0"
       id="path4220-7"
       sodipodi:nodetypes="cssccccccccccsccccc" />
    <path
       inkscape:connector-curvature="0"
       style="line-height:125%;letter-spacing:0;word-spacing:0;fill:#ffffff;fill-opacity:1"
       d="m 14.650382,18.603884 c -2e-6,-0.329411 0.08571,-0.578429 0.257143,-0.747059 0.171426,-0.168626 0.42095,-0.252939 0.748571,-0.252941 0.316187,2e-6 0.559997,0.08627 0.731428,0.258824 0.175236,0.17255 0.262854,0.419609 0.262858,0.741176 -4e-6,0.309804 -0.08763,0.554903 -0.262858,0.735294 -0.175241,0.17647 -0.41905,0.264706 -0.731428,0.264706 -0.320002,0 -0.567621,-0.08628 -0.742857,-0.258824 -0.17524,-0.17647 -0.262859,-0.423528 -0.262857,-0.741176"
       id="path4224-7" />
  </g>
</svg>

<svg xmlns="http://www.w3.org/2000/svg" viewBox="0 0 48 48">
 <defs>
  <linearGradient id="linearGradient3790" y1="-7" x2="0" y2="23" gradientUnits="userSpaceOnUse">
   <stop style="stop-color:#839496;stop-opacity:1"/>
   <stop offset="1" style="stop-color:#667678;stop-opacity:1"/>
  </linearGradient>
 </defs>
 <path d="m 22 8 c -1.108 0 -2 0.892 -2 2 l 0 1 l -2 0 c -1.108 0 -2 0.892 -2 2 l 0 25 c 0 1.108 0.892 2 2 2 l 12 0 c 1.108 0 2 -0.892 2 -2 l 0 -25 c 0 -1.108 -0.892 -2 -2 -2 l -2 0 l 0 -1 c 0 -1.108 -0.892 -2 -2 -2 l -4 0 z" style="fill:url(#linearGradient3790);fill-opacity:1;stroke:none"/>
 <rect width="2" height="3" x="24" y="8" style="fill:#fff;opacity:0.2;fill-opacity:1;stroke:none"/>
 <rect rx="2" y="11" x="16" height="29" width="16" style="fill:#6fa7ce;opacity:0.2;fill-opacity:1;stroke:none;fill-rule:nonzero"/>
 <rect width="3" height="29" x="27" y="11" style="fill:#fff;opacity:0.2;fill-opacity:1;stroke:none"/>
 <g transform="matrix(1.7244243,0,0,1.7244243,-3.4758282,-0.80541394)" style="fill:#fff;fill-opacity:1">
  <path d="m 14.757 16.704 0 -0.292 c 0 -0.381 0.089 -0.713 0.267 -0.995 0.178 -0.282 0.503 -0.582 0.976 -0.9 0.456 -0.298 0.755 -0.54 0.898 -0.727 0.148 -0.187 0.221 -0.395 0.221 -0.626 0 -0.258 -0.104 -0.455 -0.312 -0.59 -0.208 -0.135 -0.499 -0.203 -0.872 -0.203 -0.651 0 -1.393 0.195 -2.226 0.584 l -0.709 -1.305 c 0.967 -0.497 1.993 -0.745 3.078 -0.745 0.894 0 1.603 0.197 2.128 0.59 0.529 0.393 0.794 0.918 0.794 1.574 0 0.437 -0.108 0.815 -0.325 1.132 -0.217 0.318 -0.629 0.675 -1.236 1.073 -0.416 0.282 -0.681 0.497 -0.794 0.644 -0.108 0.147 -0.163 0.34 -0.163 0.578 l 0 0.208 -1.725 0" style="fill:#fff"/>
  <path d="m 14.65 18.604 c 0 -0.329 0.086 -0.578 0.257 -0.747 0.171 -0.169 0.421 -0.253 0.749 -0.253 0.316 0 0.56 0.086 0.731 0.259 0.175 0.173 0.263 0.42 0.263 0.741 0 0.31 -0.088 0.555 -0.263 0.735 -0.175 0.176 -0.419 0.265 -0.731 0.265 -0.32 0 -0.568 -0.086 -0.743 -0.259 -0.175 -0.176 -0.263 -0.424 -0.263 -0.741" style="fill:#fff"/>
 </g>
</svg>
